X:219
T:Nine Points of Roguery (reel) 
B:CRE2.264 (Naoi nArda na RÃÂÃÂÃÂÃÂ³gaireachta)
F:file ID: cre.2/219nine_p
N:This is John Doherty's setting. The tune is usually
played A-B-C-B.
L:1/8
M:C
R:reel
Q:180
K:D
%A
A,|D2FA GFED|AdAF AdAF|(3DDD FD GFEd|=cEcB cEEF|
DEFD GFED|AdAF AdAF|(3DDD FD GFEc|dDdc dDD:|
%B
B|=c2cA B2BG|A2Ad AGFE|(3DDD (3FED GFEd|=cEcB cEEd|
=c2cA B2BG|ABde fdAF|D2FA GFEc|dDdc dDD:|
%C
c|d2fa gfec|defg abaf|d2fa gfed|be (3efe beef|
d2fa gfec|defg abaf|d2fa gfeg|fdge fdA:|


%%%

